X:1655
T:Boarischer - schottisch/schottische/scottish
C:Simon Wascher
Z:abc transcription Simon Wascher
N:please mail errors to: simon.wascher@chello.at
M:2/4
L:1/16
K:G
GA|B2d2 G2B2|A2c2 E2G2|AGFE DABc|B2e2 d3c|
B2d2 G2B2|A2c2 E3G|FEDB cdFA|G2B2G2:|
|:z2|d4g4|B4d4|cEAc BDGB|AGFE E2D2|
d4g4|B4d4|cEAc BDGB|AEFDG2:|


